svg/wrench_outline.svg

<svg xmlns="http://www.w3.org/2000/svg" viewBox="0 0 24 24"><path d="m22.61 19-9.08-9.09c.93-2.34.47-5.1-1.44-7C9.79.61 6.21.4 3.66 2.26L7.5 6.11 6.08 7.5 2.25 3.69C.39 6.23.6 9.82 2.9 12.11c1.86 1.86 4.57 2.35 6.89 1.48l9.11 9.11c.39.39 1.02.39 1.41 0l2.3-2.3c.39-.4.39-1.01 0-1.4m-3 1.59-9.46-9.46c-.61.45-1.29.72-2 .82-1.36.2-2.79-.21-3.83-1.25C3.37 9.76 2.93 8.5 3 7.26l3.09 3.09 4.24-4.24L7.24 3c1.26-.05 2.49.39 3.44 1.33a4.47 4.47 0 0 1 1.24 3.96 4.35 4.35 0 0 1-.88 1.96l9.46 9.45z"/></svg>

<?xml version="1.0" encoding="UTF-8"?><!DOCTYPE svg PUBLIC "-//W3C//DTD SVG 1.1//EN" "http://www.w3.org/Graphics/SVG/1.1/DTD/svg11.dtd"><svg xmlns="http://www.w3.org/2000/svg" xmlns:xlink="http://www.w3.org/1999/xlink" version="1.1" id="mdi-wrench-outline" width="24" height="24" viewBox="0 0 24 24"><path d="M22.61,19L13.53,9.91C14.46,7.57 14,4.81 12.09,2.91C9.79,0.61 6.21,0.4 3.66,2.26L7.5,6.11L6.08,7.5L2.25,3.69C0.39,6.23 0.6,9.82 2.9,12.11C4.76,13.97 7.47,14.46 9.79,13.59L18.9,22.7C19.29,23.09 19.92,23.09 20.31,22.7L22.61,20.4C23,20 23,19.39 22.61,19M19.61,20.59L10.15,11.13C9.54,11.58 8.86,11.85 8.15,11.95C6.79,12.15 5.36,11.74 4.32,10.7C3.37,9.76 2.93,8.5 3,7.26L6.09,10.35L10.33,6.11L7.24,3C8.5,2.95 9.73,3.39 10.68,4.33C11.76,5.41 12.17,6.9 11.92,8.29C11.8,9 11.5,9.66 11.04,10.25L20.5,19.7L19.61,20.59Z" /></svg>
